Sources/FrostedUI/Resources/Icons.xcassets/photo24.imageset/photo-24.svg

<svg width="24" height="24" viewBox="0 0 24 24" fill="none" xmlns="http://www.w3.org/2000/svg" data-fui-icon="true">
  <path
    d="M17.75 2C20.0972 2 22 3.90279 22 6.25V17.75C22 20.0972 20.0972 22 17.75 22H6.25C3.90279 22 2 20.0972 2 17.75V6.25C2 3.90279 3.90279 2 6.25 2H17.75ZM6.84668 12.5C6.63914 12.5001 6.44237 12.594 6.3125 12.7559L3.5 16.2637V17.75C3.5 19.2688 4.73122 20.5 6.25 20.5H14.3203L7.35645 12.7275C7.22659 12.5828 7.04113 12.5 6.84668 12.5ZM16.3584 14.5C16.1434 14.5001 15.9402 14.5979 15.8057 14.7656L13.6279 17.4785L16.335 20.5H17.75C19.0229 20.5 20.0899 19.6341 20.4033 18.46L16.874 14.7227C16.7401 14.5808 16.5535 14.5 16.3584 14.5ZM6.25 3.5C4.73122 3.5 3.5 4.73122 3.5 6.25V13.8652L5.14258 11.8174C5.55714 11.3006 6.18416 11.0001 6.84668 11C7.46752 11 8.05924 11.2643 8.47363 11.7266L12.6133 16.3467L14.6357 13.8271C15.0549 13.3045 15.6884 13.0001 16.3584 13C16.9662 13 17.5475 13.2505 17.9648 13.6924L20.5 16.3779V6.25C20.5 4.73122 19.2688 3.5 17.75 3.5H6.25ZM13 5C14.6569 5 16 6.34315 16 8C16 9.65685 14.6569 11 13 11C11.3431 11 10 9.65685 10 8C10 6.34315 11.3431 5 13 5ZM13 6.5C12.1716 6.5 11.5 7.17157 11.5 8C11.5 8.82843 12.1716 9.5 13 9.5C13.8284 9.5 14.5 8.82843 14.5 8C14.5 7.17157 13.8284 6.5 13 6.5Z"
    fill="currentColor"
  />
</svg>

<svg xmlns="http://www.w3.org/2000/svg" width="24" height="24" fill="none" data-fui-icon="true" viewBox="0 0 24 24"><path fill="currentColor" d="M17.75 2A4.25 4.25 0 0 1 22 6.25v11.5A4.25 4.25 0 0 1 17.75 22H6.25A4.25 4.25 0 0 1 2 17.75V6.25A4.25 4.25 0 0 1 6.25 2zM6.847 12.5a.69.69 0 0 0-.535.256L3.5 16.264v1.486a2.75 2.75 0 0 0 2.75 2.75h8.07l-6.964-7.773a.69.69 0 0 0-.51-.227m9.511 2a.7.7 0 0 0-.552.266l-2.178 2.713 2.707 3.021h1.415c1.273 0 2.34-.866 2.653-2.04l-3.529-3.737a.7.7 0 0 0-.516-.223M6.25 3.5A2.75 2.75 0 0 0 3.5 6.25v7.615l1.643-2.048a2.185 2.185 0 0 1 3.33-.09l4.14 4.62 2.023-2.52a2.21 2.21 0 0 1 3.329-.135l2.535 2.686V6.25a2.75 2.75 0 0 0-2.75-2.75zM13 5a3 3 0 1 1 0 6 3 3 0 0 1 0-6m0 1.5a1.5 1.5 0 1 0 0 3 1.5 1.5 0 0 0 0-3"/></svg>
